X:412
T:Soldier's Joy
C:Traditional - Arr. Tim O'Brien
N:
R:bluegrass
L:1/8
Q:1/4=230
M:4/4
K:D
z6 FG |: "D"AF DF AF DF | A2 dc d2 FG | AF DF AF DF | "A"G2 E2 E2 FG | "D"AF DF AF DF | 
A2 dc d2 de | "D"fa fd "A"eg ec |1 d2 dd d2 FG :|2 d2 dd d2 de |: "D"fe fg ab af | 
"G"ed cd ef ge | "D"fe fg ab af | "A"ed cB A2 de | "D"fe fg ab af | "G"ed cd ef ge | 
"D"fa fd "A"eg ec |1 d2 dd d2 de :|2 d2 dd d4 | 


